Adwaita++/actions/16/text_remove_kerns.svg

<svg fill="none" height="16" viewBox="0 0 16 16" width="16" xmlns="http://www.w3.org/2000/svg" xmlns:xlink="http://www.w3.org/1999/xlink">
  <defs>
    <clipPath id="clip0">
      <path d="m0 0h16v16h-16z"/>
    </clipPath>
  </defs>
  <g clip-path="url(#clip0)">
    <path d="m10.7985 8.70151 1.2964 1.29643-1.2985 1.29846 1.2964 1.2964 1.2985-1.2985 1.2963 1.2963 1.2985-1.2985-1.2963-1.2963 1.2984-1.29849-1.2963-1.29635-1.2985 1.29849-1.2964-1.29643z" fill="#e01b24"/>
    <path clip-rule="evenodd" d="m4.90909 12.6 3.05844-9.6h-2.12987l-1.86363 6.40669-1.85715-6.40669h-2.11688l3.04545 9.6zm9.22731-5.49844v-.25888c0-.26332-.0498-.51102-.1494-.7431-.0952-.23654-.2273-.44184-.3961-.6159s-.368-.31018-.5974-.40837c-.2251-.10265-.4654-.15397-.7208-.15397s-.4978.05132-.7272.15397c-.2252.09819-.4221.23431-.591.40837-.1688.17406-.303.37936-.4026.6159-.0952.23208-.1428.47978-.1428.7431v1.85223l-.0066.0066.0066.0066v.05591h.0559l1.2339 1.23392-.6807.68076h-.2482-.3609v.6091l-.0087.0086.0087.0087v1.2949h-1.85715v-5.75732c0-.5311.0974-1.02873.29221-1.49289.1948-.46862.45887-.87699.7922-1.2251.33767-.34812.73164-.6226 1.18184-.82343.4545-.20084.9394-.30126 1.4545-.30126.5152 0 .9979.10042 1.4481.30126.4545.20083.8506.47531 1.1883.82343.3377.34811.6039.75648.7987 1.2251.1948.46416.2922.96179.2922 1.49289v.85732.6131l-1.3081-1.30812-.5555.55552zm1.8636 5.49844h-.9259l.9259-.9259zm0-3.51848v1.82858l-.9143-.9143z" fill="#444" fill-rule="evenodd"/>
  </g>
</svg>

<svg xmlns="http://www.w3.org/2000/svg" fill="none" width="16" height="16" viewBox="0 0 16 16">
 <g clip-path="url(#clip0)">
  <path fill="#E01B24" d="M10.7985 8.70151L12.0949 9.99794L10.7964 11.2964L12.0928 12.5928L13.3913 11.2943L14.6876 12.5906L15.9861 11.2921L14.6898 9.9958L15.9882 8.69731L14.6919 7.40096L13.3934 8.69945L12.097 7.40302L10.7985 8.70151Z"/>
  <path fill="#444" fill-rule="evenodd" d="M4.90909 12.6L7.96753 3H5.83766L3.97403 9.40669L2.11688 3H0L3.04545 12.6H4.90909ZM14.1364 7.10156V6.84268C14.1364 6.57936 14.0866 6.33166 13.987 6.09958C13.8918 5.86304 13.7597 5.65774 13.5909 5.48368C13.4221 5.30962 13.2229 5.1735 12.9935 5.07531C12.7684 4.97266 12.5281 4.92134 12.2727 4.92134C12.0173 4.92134 11.7749 4.97266 11.5455 5.07531C11.3203 5.1735 11.1234 5.30962 10.9545 5.48368C10.7857 5.65774 10.6515 5.86304 10.5519 6.09958C10.4567 6.33166 10.4091 6.57936 10.4091 6.84268V8.69491L10.4025 8.70151L10.4091 8.70811V8.76402H10.465L11.6989 9.99794L11.0182 10.6787H10.77H10.4091V11.2878L10.4004 11.2964L10.4091 11.3051V12.6H8.55195V6.84268C8.55195 6.31158 8.64935 5.81395 8.84416 5.34979C9.03896 4.88117 9.30303 4.4728 9.63636 4.12469C9.97403 3.77657 10.368 3.50209 10.8182 3.30126C11.2727 3.10042 11.7576 3 12.2727 3C12.7879 3 13.2706 3.10042 13.7208 3.30126C14.1753 3.50209 14.5714 3.77657 14.9091 4.12469C15.2468 4.4728 15.513 4.88117 15.7078 5.34979C15.9026 5.81395 16 6.31158 16 6.84268V7.7V8.3131L14.6919 7.00498L14.1364 7.5605V7.10156ZM16 12.6H15.0741L16 11.6741V12.6ZM16 9.08152V10.9101L15.0857 9.9958L16 9.08152Z" clip-rule="evenodd"/>
 </g>
 <defs>
  <clipPath id="clip0">
   <rect fill="#fff" width="16" height="16"/>
  </clipPath>
 </defs>
</svg>
